X: 16
T: Chenshi shang kuming ren shaoyou wo
L: 1/8
M: 2/4
K: A
c'> c' c' e' [I:setbarnb 1]| 
a> a a c' | 
e> c A f | 
B4 | 
(3c'2 c'2 e'2 | 
a> a a c' | 
e> c A f | 
e4 |]

@@@ Tune index: 8890
